packages/tokens/icons/home/size32Px.svg

<svg viewBox="0 0 32 32" fill="none" xmlns="http://www.w3.org/2000/svg" width="1em" height="1em"><path d="M25.4118 18.5H24.9118V19V27C24.9118 27.8284 24.2402 28.5 23.4118 28.5H19.4118C18.5833 28.5 17.9118 27.8284 17.9118 27V23.1471C17.9118 21.9613 16.9505 21 15.7647 21C14.5789 21 13.6176 21.9613 13.6176 23.1471V27C13.6176 27.8284 12.9461 28.5 12.1176 28.5H8.58823C7.75981 28.5 7.08824 27.8284 7.08824 27L7.08824 19V18.5H6.58824H4.62885C3.31429 18.5 2.6356 16.9292 3.53655 15.972L14.9077 3.89011C15.5 3.26084 16.5 3.26084 17.0923 3.89011L28.4634 15.9719C29.3644 16.9292 28.6857 18.5 27.3711 18.5H25.4118Z" stroke="currentColor"/></svg>

<svg xmlns="http://www.w3.org/2000/svg" fill="none" viewBox="0 0 32 32" width="1em" height="1em"><path stroke="currentColor" d="M25.412 18.5h-.5V27a1.5 1.5 0 0 1-1.5 1.5h-4a1.5 1.5 0 0 1-1.5-1.5v-3.853a2.147 2.147 0 0 0-4.294 0V27a1.5 1.5 0 0 1-1.5 1.5h-3.53a1.5 1.5 0 0 1-1.5-1.5v-8.5h-2.46c-1.314 0-1.992-1.57-1.091-2.528L14.907 3.89a1.5 1.5 0 0 1 2.185 0l11.371 12.082c.901.957.223 2.528-1.092 2.528h-1.96Z"/></svg>
